X: 21422
T: CUCKOO SETT (tune 2)
C:
%R: jig
B: Elias Howe "The Musician's Companion" 1843 p.142 #2
S: http://imslp.org/wiki/The_Musician's_Companion_(Howe,_Elias)
Z: 2015 John Chambers <jc:trillian.mit.edu>
M: 6/8
L: 1/8
K: D
% - - - - - - - - - - - - - - - - - - - - - - - - - - - - -
V: 1 name="2"
[|\
DFA d2f | edc B2d | A2d F2d | AGF E3 |\
DFA d2f | edc B2d | A2d F2A | AGE D3 H|]
Ace g2g | fag fed | Ace g2g | faf d3 |\
Ace g2g | fag f2e | dcB ABc | dfd "^D.C."A3 :|
a |\
aga fef | Adf a2f | a2g e2a | (f3 d2)a |\
aga fef | Adf a2f | a2g e2f | d3 "^D.C."z3 |]
% - - - - - - - - - - Dance description - - - - - - - - - -
%%begintext align
%% First couple forward and back,
%% lady cross over,
%% forward three,
%% two ladies cross over,
%% forward again,
%% swing partners to place,
%% balance four,
%% ladies chain,
%% promenade four.
%%endtext
% - - - - - - - - - - - - - - - - - - - - - - - - - - - - -
%%sep 1 1 300

%%sep 1 1 500

